!!!COM: Haydn, Franz Joseph
!!!OTL: String Quartet in C Major
!!!OPS: Opus 50
!!!ONM: No. 2
!!!OMD: Menuetto: Allegretto
!!!OMV: 3
!!!SCT: H III:45
!!!SCA: Thematisch-bibliographisches Werkevererzeichnis (A. van Hoboken)
!!!YOR: Trautwein Edition
!!!ENC: Frances Bennion
!!!CDT: 1732/3/31/-1809/5/31/
!!!CNT: Oesterreich
!!!YEC: Copyright (c) 1994, 2000 Center for Computer Assisted Research in the Humanities
!!!YEM: Rights to all derivative editions reserved.
!!!YEM: Refer to licensing agreement for further details.
!!!YEN: United States of America
**kern	**kern	**kern	**kern
*k[]	*k[]	*k[]	*k[]
*C:	*C:	*C:	*C:
*clefF4	*clefC3	*clefG	*clefG
*M3/4	*M3/4	*M3/4	*M3/4
2r	2r	2r	2r
4r	4r	4r	4g
=1	=1	=1	=1
2.r	2.r	2.r	4gg
.	.	.	4ee
.	.	.	4cc
=2	=2	=2	=2
4r	2.r	4r	[2.g
4c#	.	4e	.
4d	.	4f	.
=3	=3	=3	=3
4B	2r	4d	2g]
4c	.	4e	.
4A	4a	4f#	4cc
=4	=4	=4	=4
2G	4cc	4g	4ee
.	4b	2r	4dd
4r	4r	.	4g
=5	=5	=5	=5
2.r	2.r	2.r	4aa
.	.	.	4ff
.	.	.	4dd
=6	=6	=6	=6
2.r	4r	4r	2b
.	4f	4a-	.
.	4e	8g	4cc
.	.	8cc	.
=7	=7	=7	=7
4F	2A	2cc	4dd
4F#	.	.	4ee-
4G	4G	[4f	4b
=8	=8	=8	=8
2C	4B	4f]	4dd
.	4c	4e	4cc
4r	4r	4r	4g
=9	=9	=9	=9
2.r	2.r	2.r	4bb-
.	.	.	4gg
.	.	.	4ee
=10	=10	=10	=10
2.r	4r	4r	2cc#
.	4g	4b-	.
.	4f	4a	4dd
=11	=11	=11	=11
2.r	4e	4cc#	4ee
.	4c#	4a	4aa
.	4e	4cc#	4gg
=12	=12	=12	=12
2r	4d	4dd	4ff
.	4A	4cc#	4ee
4AA	4r	4r	4r
=13	=13	=13	=13
4A	2r	2r	2r
4F	.	.	.
4D	4d	4g#	4ff
=14	=14	=14	=14
4C#	4e	4a	4ee
4AA	2r	2r	4cc#
4GG	.	.	4r
=15	=15	=15	=15
4B-	2r	2r	2r
4G	.	.	.
4E	4g	4b-	4ccc#
=16	=16	=16	=16
2.F	4f	2.a	4ddd
.	4dd	.	4aa
.	4dd	.	4ff
=17	=17	=17	=17
2G	4dd	2b-	4ee
.	4r	.	4gg
4A	4cc#	4g	4cc#
=18	=18	=18	=18
[2.B-	2.cc#	2.g	2.ee
=19	=19	=19	=19
2.B-]	2dd	2f	2dd
.	4r	4r	4r
=20	=20	=20	=20
2.r	2.r	2.r	2r
.	.	.	4f
=21	=21	=21	=21
2.r	2.r	2.r	4aa
.	.	.	4ff
.	.	.	4dd
=22	=22	=22	=22
2.r	4r	4r	[2.a
.	4d#	4f#	.
.	4e	4g	.
=23	=23	=23	=23
2.r	4c#	4e	2a]
.	4d	4f	.
.	4r	4r	4f
=24	=24	=24	=24
2.r	2.r	2.r	4aa
.	.	.	4ff
.	.	.	4dd
=25	=25	=25	=25
2.r	2.r	2.r	4gg
.	.	.	4ee
.	.	.	4cc
=26	=26	=26	=26
4r	2.r	4r	[2.g
4c#	.	4e	.
4d	.	4f	.
=27	=27	=27	=27
4B	2r	4d	2g]
4c	.	4e	.
4A	4a	4f#	4cc
=28	=28	=28	=28
2G	4cc	4g	4ee
.	4b	2r	4dd
4r	4r	.	4g
=29	=29	=29	=29
2.r	2.r	2.r	4aa
.	.	.	4ff
.	.	.	4dd
=30	=30	=30	=30
2.r	4r	4r	2b
.	4f	4a-	.
.	4e	8g	4cc
.	.	8cc	.
=31	=31	=31	=31
4F	2A	2cc	4dd
4F#	.	.	4ee-
4G	4G	[4f	4b
=32	=32	=32	=32
4G#	4B	4f]	4dd
4A	4A	4e	4cc
4r	4r	4r	4r
=33	=33	=33	=33
2.r	2.r	4dd	4ff
.	.	4ff	4aa
.	.	4b	4dd
=34	=34	=34	=34
2.r	2.r	4dd	4ff
.	.	4cc	4ee
.	.	4r	4r
=35	=35	=35	=35
4C	2.r	2ee	4aa
4AA	.	.	4ccc
4D	.	[4cc	4ff#
=36	=36	=36	=36
[2.GG	2r	4cc]	4aa
.	.	4b	4gg
.	4G	4r	4r
=37	=37	=37	=37
2.GG_	4g	2.r	2.r
.	4e	.	.
.	4c	.	.
=38	=38	=38	=38
2.GG_	[2.G	4r	4r
.	.	4cc#	4ee
.	.	4dd	4ff
=39	=39	=39	=39
2.GG_	2G]	4b	4dd
.	.	4cc	4ee
.	4F#	4a	4cc
=40	=40	=40	=40
2.GG_	2G	4cc	4ee
.	.	4b	4dd
.	4G	4r	4r
=41	=41	=41	=41
2.GG]	4a	2.r	2.r
.	4f	.	.
.	4d	.	.
=42	=42	=42	=42
2GG 2D	2B	4r	4r
.	.	4ff	4aa
4E	4c	4ee	4gg
=43	=43	=43	=43
4F 4GG	4a	4dd	4ff
4G 4GG	4g	4cc	4ee
4G 4GG	4f	4b	4dd
=44	=44	=44	=44
4C	4e	4cc	4cc
2r	2r	2r	4r
.	.	.	4cc
=45	=45	=45	=45
2.A-	2.A-	2.f [2.cc	4ccc
.	.	.	4aa-
.	.	.	4ff
=46	=46	=46	=46
4G	4B-	4cc] 4g	4ee
2r	2r	2r	4r
.	.	.	4cc
=47	=47	=47	=47
2.E	2.B-	2.g [2.cc	4ccc
.	.	.	4bb-
.	.	.	4gg
=48	=48	=48	=48
4F	4c	4cc] 4a-	4aa-
2r	2r	2r	4r
.	.	.	4ff
=49	=49	=49	=49
4GG	4f 4G	4b 4d	4fff
2r	2r	2r	4ddd
.	.	.	4bb
=50	=50	=50	=50
4CC	4G 4e	4cc 4e	4ccc
2r	2r	4r	2r
.	.	4g	.
=51	=51	=51	=51
2.c	8e	4cc	2.r
.	8g	.	.
.	8a	4ee	.
.	8g	.	.
.	8e	4gg	.
.	8g	.	.
=52	=52	=52	=52
2.B	8d	4gg	2r
.	8g	.	.
.	8b	2r	.
.	8dd	.	.
.	8b	.	4g
.	8g	.	.
=53	=53	=53	=53
2.A	8c	2.r	4a
.	8e	.	.
.	8f	.	4cc
.	8e	.	.
.	8c	.	4ee
.	8e	.	.
=54	=54	=54	=54
2.G	8B	2r	4ee
.	8e	.	.
.	8g	.	2r
.	8b	.	.
.	8g	4e	.
.	8e	.	.
=55	=55	=55	=55
2.F	8A	4f	2.r
.	8c	.	.
.	8d	4a	.
.	8c	.	.
.	8A	4cc	.
.	8c	.	.
=56	=56	=56	=56
2.E	8G	4cc	2r
.	8c	.	.
.	8e	2r	.
.	8g	.	.
.	8e	.	4cc
.	8c	.	.
=57	=57	=57	=57
2.D	8A	2.r	4ccc
.	8c	.	.
.	8d	.	4aa
.	8f#	.	.
.	8a	.	4ff#
.	8cc	.	.
=58	=58	=58	=58
4GG	4b	2r	4gg
2r	2r	.	4r
.	.	4b	4dd
=59	=59	=59	=59
8G	2.r	4dd	4ff
8B	.	.	.
8d	.	4b	4dd
8B	.	.	.
8G	.	4dd	4ff
8B	.	.	.
=60	=60	=60	=60
8G	2.r	4cc	4ee
8c	.	.	.
8e	.	4r	4r
8g	.	.	.
8e	.	4ee	4ccc
8c	.	.	.
=61	=61	=61	=61
8G	2.r	4ff	4ddd
8B	.	.	.
8d	.	4dd	4bb
8B	.	.	.
8G	.	4ff	4ddd
8B	.	.	.
=62	=62	=62	=62
8c	2.r	4ee	4ccc
8G	.	.	.
8E	.	4r	4r
8C	.	.	.
8E	.	4cc	4ee
8C	.	.	.
=63	=63	=63	=63
4GG	8G	4dd	4ff
.	8B	.	.
2r	8d	4b	4dd
.	8B	.	.
.	8G	4dd	4ff
.	8B	.	.
=64	=64	=64	=64
4GG	8G	4cc	4ee
.	8c	.	.
2r	8e	4r	4r
.	8c	.	.
.	8G	4cc	4ee
.	8c	.	.
=65	=65	=65	=65
4GG	8A	4a	4ccc
.	8c	.	.
2r	8d	4f#	4aa
.	8c	.	.
.	8A	4a	4ff#
.	8c	.	.
=66	=66	=66	=66
4GG	4B	4g	4gg
2r	2r	2r	4r
.	.	.	4g
=67	=67	=67	=67
2.c	2.e	8e	4cc
.	.	8g	.
.	.	8a	4ee
.	.	8g	.
.	.	8e	4gg
.	.	8g	.
=68	=68	=68	=68
4B	4d	8d	4gg
.	.	8g	.
2r	2r	8b	2r
.	.	8dd	.
.	.	4r	.
=69	=69	=69	=69
2.r	2.r	2.r	2r
.	.	.	4g
=70	=70	=70	=70
2.r	2.c	8e	4cc
.	.	8g	.
.	.	8a	4ee
.	.	8g	.
.	.	8e	4gg
.	.	8g	.
=71	=71	=71	=71
2.r	4B	8d	4gg
.	.	8g	.
.	2r	8b	2r
.	.	8dd	.
.	.	8b	.
.	.	8g	.
=72	=72	=72	=72
2.r	2.r	2.r	2.r
=73	=73	=73	=73
4CC	8E	2.r	2.r
.	8G	.	.
4EE	8A	.	.
.	8G	.	.
4GG	8E	.	.
.	8G	.	.
=74	=74	=74	=74
4GG	8D	2.r	2r
.	8G	.	.
2r	8B	.	.
.	8d	.	.
.	8B	.	4g
.	8G	.	.
=75	=75	=75	=75
2.C	4g	8e	4cc
.	.	8g	.
.	4e	8a	4ee
.	.	8g	.
.	4c	8e	4gg
.	.	8g	.
=76	=76	=76	=76
2.C#	4a	8e	4gg
.	.	8g	.
.	4g	8a	4ee
.	.	8ee	.
.	4e	8a	4a
.	.	8g	.
=77	=77	=77	=77
2.D	4b-	8f	4ff
.	.	8a	.
.	4f	8b-	4dd
.	.	8a	.
.	4d	8f	4b-
.	.	8a	.
=78	=78	=78	=78
2.E	4cc	8g	4bb-
.	.	8b-	.
.	4b-	8cc	4gg
.	.	8gg	.
.	4g	8cc	4cc
.	.	8b-	.
=79	=79	=79	=79
2.F	4cc	8a	4aa
.	.	8cc	.
.	4a	8ff	4ff
.	.	8aa	.
.	4f	8ff	4cc
.	.	8cc	.
=80	=80	=80	=80
2.F#	4e-	8a	4ccc
.	.	8cc	.
.	4c	8ee-	4aa
.	.	8ff#	.
.	4A	8aa	4ee-
.	.	8cc	.
=81	=81	=81	=81
2.G	2G	8g	2ee
.	.	8cc	.
.	.	8ee	.
.	.	8gg	.
.	8B	8ff	8dd
.	8d	8dd	8b
=82	=82	=82	=82
4C	4e	4cc	4cc
2r	2r	2r	2r
==	==	==	==
*-	*-	*-	*-
!!!RWG1: This file contains only pitch and duration data.
!!!RWG2: Transposing instruments are not transposed.
!!!RWG3: Spines may have incompatible meters.
!!!RWG4: Durations of rests and tied notes may be interpreted.
!!!RWG: Key is interpreted using the Humdrum key tool.
!!!GTL: 6 Quartetti ("Prussian")
!!!AFT: stage1
!!!END: 1997/04/15
!!!KEY: 2796815637
!!!EMD: Converted from MuseData to Humdrum Dec 16, 2000, by Andreas Kornstaedt using muse2kern.
!!!EMD: Manual editing by Craig Sapp, Nov 2001
